icons/stack-alt.svg

<svg xmlns="http://www.w3.org/2000/svg" viewBox="0 0 24 24" fill="currentColor">
  <path d="m6.48593 7.56023 4.48877-3.19204c.6434-.42435 1.4072-.42435 2.0506 0l4.4893 3.19242c.9805.70088.9799 2.17807-.0005 2.87899l-.9.64-2.7386-1.94744-.0095-.00627c-1.1519-.76795-2.5801-.76795-3.732 0l-.0094.00627-2.73866 1.94744-.9006-.6404c-.9805-.70094-.97999-2.1781.00059-2.87897Zm-.39416 4.43967-.47641-.3388-.00129-.0009c-1.81876-1.2991-1.81876-4.02146 0-5.32057l.00129-.00092 4.50924-3.20655.0094-.00627c1.1519-.76795 2.5801-.76795 3.732 0l.0095.00627 4.5105 3.20747c1.8187 1.29911 1.8187 4.02147 0 5.32057l-.0013.0009-.4764.3388.4777.3397c1.8187 1.2991 1.8187 4.0215 0 5.3206l-.0013.0009-4.5092 3.2066-.0095.0063c-1.1519.7679-2.5801.7679-3.732 0l-.0094-.0063-4.50924-3.2066-.00129-.0009c-1.81876-1.2991-1.81876-4.0215 0-5.3206l.00129-.0009.47641-.3388Zm10.52233.9203.9005.6404c.9805.7009.9799 2.1781-.0005 2.879l-4.4888 3.1921c-.6434.4243-1.4072.4243-2.0506 0l-4.48936-3.1925c-.9805-.7009-.97999-2.1781.00059-2.879l.90001-.64 2.73866 1.9475.0094.0063c1.1519.7679 2.5801.7679 3.732 0l.0095-.0063 2.7386-1.9475Zm-1.2942-.9203-2.2946 1.6318c-.6434.4243-1.4072.4243-2.0506 0l-2.2946-1.6318 2.2946-1.6317c.6434-.42436 1.4072-.42436 2.0506 0l2.2946 1.6317Z"/>
</svg>

<svg width="24" height="24" viewBox="0 0 24 24" fill="none" xmlns="http://www.w3.org/2000/svg">
<path fill-rule="evenodd" clip-rule="evenodd" d="M6.48593 7.56023L10.9747 4.36819C11.6181 3.94384 12.3819 3.94384 13.0253 4.36819L17.5146 7.56061C18.4951 8.26149 18.4945 9.73868 17.5141 10.4396L16.6141 11.0796L13.8755 9.13216L13.866 9.12589C12.7141 8.35794 11.2859 8.35794 10.134 9.12589L10.1246 9.13216L7.38594 11.0796L6.48534 10.4392C5.50484 9.73826 5.50535 8.2611 6.48593 7.56023ZM6.09177 11.9999L5.61536 11.6611L5.61407 11.6602C3.79531 10.3611 3.79531 7.63874 5.61407 6.33963L5.61536 6.33871L10.1246 3.13216L10.134 3.12589C11.2859 2.35794 12.7141 2.35794 13.866 3.12589L13.8755 3.13216L18.386 6.33963C20.2047 7.63874 20.2047 10.3611 18.386 11.6602L18.3847 11.6611L17.9083 11.9999L18.386 12.3396C20.2047 13.6387 20.2047 16.3611 18.386 17.6602L18.3847 17.6611L13.8755 20.8677L13.866 20.874C12.7141 21.6419 11.2859 21.6419 10.134 20.874L10.1246 20.8677L5.61536 17.6611L5.61407 17.6602C3.79531 16.3611 3.79531 13.6387 5.61407 12.3396L5.61536 12.3387L6.09177 11.9999ZM16.6141 12.9202L17.5146 13.5606C18.4951 14.2615 18.4945 15.7387 17.5141 16.4396L13.0253 19.6317C12.3819 20.056 11.6181 20.056 10.9747 19.6317L6.48534 16.4392C5.50484 15.7383 5.50535 14.2611 6.48593 13.5602L7.38594 12.9202L10.1246 14.8677L10.134 14.874C11.2859 15.6419 12.7141 15.6419 13.866 14.874L13.8755 14.8677L16.6141 12.9202ZM15.3199 11.9999L13.0253 13.6317C12.3819 14.056 11.6181 14.056 10.9747 13.6317L8.6801 11.9999L10.9747 10.3682C11.6181 9.94384 12.3819 9.94384 13.0253 10.3682L15.3199 11.9999Z" fill="black"/>
</svg>
